public/icons/icon/geo-octagon.svg

<svg width="30" height="30" viewBox="0 0 30 30" fill="none" xmlns="http://www.w3.org/2000/svg">
<path d="M14.2421 3.22448C14.7278 3.02557 15.2722 3.02557 15.7579 3.22448L22.8403 6.12478C23.3311 6.32579 23.722 6.71354 23.927 7.20275L26.842 14.1602C27.0491 14.6546 27.0491 15.2115 26.842 15.7059L23.927 22.6633C23.722 23.1525 23.3311 23.5403 22.8403 23.7413L15.7579 26.6416C15.2722 26.8405 14.7278 26.8405 14.2421 26.6416L7.1597 23.7413C6.66885 23.5403 6.27795 23.1525 6.07299 22.6633L3.15802 15.7059C2.95088 15.2115 2.95088 14.6546 3.15802 14.1602L6.07299 7.20275C6.27795 6.71354 6.66885 6.32579 7.1597 6.12478L14.2421 3.22448Z" stroke="black" stroke-width="2"/>
</svg>

<svg xmlns="http://www.w3.org/2000/svg" width="30" height="30" fill="none"><path stroke="#000" stroke-width="2" d="M14.242 3.224a2 2 0 0 1 1.516 0l7.082 2.9a2 2 0 0 1 1.087 1.079l2.915 6.957a2 2 0 0 1 0 1.546l-2.915 6.957a2 2 0 0 1-1.087 1.078l-7.082 2.9a2 2 0 0 1-1.516 0l-7.082-2.9a2 2 0 0 1-1.087-1.078l-2.915-6.957a2 2 0 0 1 0-1.546l2.915-6.957A2 2 0 0 1 7.16 6.125l7.082-2.9Z"/></svg>
